X:1
T:Title
%%score { ( 1 3 5 ) | ( 2 4 ) }
L:1/8
Q:1/4=106
M:4/4
K:D
V:1 treble nm="Grand Piano"
V:3 treble 
V:5 treble 
V:2 bass 
V:4 bass 
V:1
 [A,DF]2 [A,DF]2 [A,DF]2 [A,DF]2 | [A,CA]4 E2 z2 | z4 [Gc]4 | [DFA]8 | %4
w: Alfred~G.~Mortimer * * *||||
 [A,FA]2 [A,DA]2 [Fd]2 [Fd]2 | z4 A2 z2 | [EAc]2 A2 B3 c | [A,CA]8 | [A,EG]2 [CEG]2 [A,E]2 [CEG]2 | %9
w: |||||
 z4 [DA]4 | [DB]2 [FB]2 [Fd]3 [Ec] | [DB]8 | A3 G F2 A2 | d4 G4 | F2 B2 E2 z ^G, | D8 | %16
w: |||||||
 D2 F2 A2 ^GA | B4 A4 | [Fd]2 [DFA]2 [EGc]3 [EGB] | [DFA]8 | D2 F2 A2 Bc | d4 e4 | %22
w: ||||||
 [Af]2 [Ad]2 [Ge]3 [Ge] | [Fd]8 |] %24
w: ||
V:2
 D,2 A,,2 D,2 A,,2 | E,4 z2 F2 | C,2 A,,2 [E,A,]2 z G | D,8 | D,2 F,2 [D,B,]2 [B,,B,]2 | %5
 [C,^G,]3 D, z2[K:treble] B2 | E,2 [E,CE]2 [E,^G,D]3 [E,G,D] | A,,8 | C,2 A,,2 C,2 A,,2 | %9
 D,3 E, F,2 D,2 | [B,,F,]2 [D,B,]2 [F,B,]3 [F,^A,] | [B,,B,]8 | [CE]3 [CE] D2 [=CDF]2 | %13
 [B,DG]4 [^A,D]4 | [A,D]2 [^G,D=F]2[K:bass] [A,B,]2 .[A,,A,]2 | [D,F,]8 | D,2 F,2 A,2 ^G,A, | %17
 B,4 A,4 | [D,A,]2 F,2 A,3 A, | D,8 | D,2 F,2 A,2 B,C | D4 E4 | [D,D]2 [F,D]2 [A,C]3 [A,C] | %23
 [D,D]8 |] %24
V:3
 x8 | z4 [A,C]4 | [A,EG]2 [CEG]2 z2 z B | x8 | x8 | [=Fc]3 [B,^FB] [B,F]4 | x8 | x8 | x8 | %9
 [DF]3 [A,CG] A,2 F,2 | x8 | x8 | x8 | x8 | z4 z2 [CE]2 | x8 | x8 | x8 | x8 | x8 | x8 | x8 | x8 | %23
 x8 |] %24
V:4
 x8 | z4 A,,4 | z4 z2 A,,2 | x8 | x8 | z4 ^D,4[K:treble] | x8 | x8 | x8 | x8 | x8 | x8 | x8 | x8 | %14
 x4[K:bass] x4 | x8 | x8 | x8 | x8 | x8 | x8 | x8 | x8 | x8 |] %24
V:5
 x8 | x8 | z4 z2 C2 | x8 | x8 | x8 | x8 | x8 | x8 | x8 | x8 | x8 | x8 | x8 | x8 | x8 | x8 | x8 | %18
 x8 | x8 | x8 | x8 | x8 | x8 |] %24

